src/icons/plus-circled.svg

<svg xmlns="http://www.w3.org/2000/svg" width="512" height="512" viewBox="0 0 512 512">
    <path d="M256 89.5c-88.4 0-160 71.6-160 160s71.6 160 160 160 160-71.6 160-160-71.6-160-160-160zm91.4 171.4h-80v80h-22.9v-80h-80V238h80v-80h22.9v80h80v22.9z"/>
</svg>

<?xml version="1.0" encoding="UTF-8"?>
<svg width="512px" height="512px" viewBox="0 0 512 512" version="1.1" xmlns="http://www.w3.org/2000/svg" xmlns:xlink="http://www.w3.org/1999/xlink">
    <!-- Generator: Sketch 62 (91390) - https://sketch.com -->
    <title>plus-circled</title>
    <desc>Created with Sketch.</desc>
    <g id="plus-circled" stroke="none" stroke-width="1" fill="none" fill-rule="evenodd">
        <path d="M256,89.5 C167.6,89.5 96,161.1 96,249.5 C96,337.9 167.6,409.5 256,409.5 C344.4,409.5 416,337.9 416,249.5 C416,161.1 344.4,89.5 256,89.5 Z M347.4,260.9 L267.4,260.9 L267.4,340.9 L244.5,340.9 L244.5,260.9 L164.5,260.9 L164.5,238 L244.5,238 L244.5,158 L267.4,158 L267.4,238 L347.4,238 L347.4,260.9 Z" id="Shape" fill="#000000" fill-rule="nonzero"></path>
    </g>
</svg>
